src/images/logoFooter.svg

<svg width="218" height="56" viewBox="0 0 218 56" fill="none" xmlns="http://www.w3.org/2000/svg">
<path d="M27.4383 0.845545H1.71758C0.768343 0.845545 0 1.61558 0 2.5669V28.3423C0 43.5294 12.2845 55.8409 27.4383 55.8409C42.592 55.8409 54.8765 43.5294 54.8765 28.3423C54.8765 13.1553 42.592 0.84375 27.4383 0.84375V0.845545ZM20.0342 40.1172C16.1209 37.9866 13.7191 33.8456 13.7191 29.3816V16.3144C13.7191 15.3631 14.4875 14.593 15.4367 14.593H28.4735C32.9259 14.593 37.0596 17.0001 39.1855 20.922C46.251 33.9515 33.0352 47.1965 20.0342 40.1154V40.1172Z" fill="white"/>
<path d="M27.4383 0.845545H1.71758C0.768343 0.845545 0 1.61558 0 2.5669V28.3423C0 43.5294 12.2845 55.8409 27.4383 55.8409C42.592 55.8409 54.8765 43.5294 54.8765 28.3423C54.8765 13.1553 42.592 0.84375 27.4383 0.84375V0.845545ZM20.0342 40.1172C16.1209 37.9866 13.7191 33.8456 13.7191 29.3816V16.3144C13.7191 15.3631 14.4875 14.593 15.4367 14.593H28.4735C32.9259 14.593 37.0596 17.0001 39.1855 20.922C46.251 33.9515 33.0352 47.1965 20.0342 40.1154V40.1172Z" fill="white"/>
<path d="M70.1484 40.6483V1.9367C70.1484 1.5454 70.4654 1.22949 70.8541 1.22949H89.9713C97.207 1.22949 101.253 3.25778 104.688 6.57664C108.245 10.2635 110.145 15.4257 110.145 21.2629C110.145 27.1001 108.061 32.7541 104.258 36.441C100.825 39.5139 97.207 41.3573 89.9713 41.3573H70.8541C70.4637 41.3573 70.1484 41.0396 70.1484 40.6501V40.6483ZM89.6651 35.2114C94.7533 35.2114 96.4709 34.0447 98.8619 32.0774C101.437 29.4963 102.97 25.5636 102.97 21.2629C102.97 16.9622 101.622 13.3364 99.1073 10.7553C96.8381 8.66596 94.6924 7.37539 89.6651 7.37539H77.0152V35.2114H89.6651Z" fill="white"/>
<path d="M118.628 21.938V40.6486C118.628 41.0399 118.311 41.3558 117.922 41.3558H113.02C112.629 41.3558 112.314 41.0381 112.314 40.6486V19.7877C112.314 19.7877 112.314 13.0584 112.325 12.4966C112.334 12.0551 112.576 11.6602 113.016 11.6602L116.765 11.6781C117.105 11.6781 117.338 11.9402 117.46 12.2579C117.712 12.9148 117.764 14.1264 117.888 15.5767C119.568 13.1015 122.247 10.6963 126.54 10.6963C128 10.6963 129.417 11.0068 130.298 11.592C130.556 11.7625 130.656 12.0946 130.561 12.3889L129.057 17.0558C128.933 17.4417 128.514 17.6427 128.136 17.4991C127.167 17.1312 125.793 16.9014 125.07 16.9014C122.249 16.9014 118.631 19.811 118.631 21.9398L118.628 21.938Z" fill="white"/>
<path d="M154.407 0C167.039 0 177.093 9.46296 177.093 21.2001C177.093 32.9373 167.037 42.5851 154.407 42.5851C141.776 42.5851 131.903 33.1222 131.903 21.2001C131.903 9.27808 141.775 0 154.407 0ZM154.407 36.441C163.052 36.441 169.858 29.5592 169.858 21.2019C169.858 12.8446 163.052 6.1459 154.407 6.1459C145.761 6.1459 139.138 12.9057 139.138 21.2019C139.138 29.4982 145.821 36.441 154.407 36.441Z" fill="white"/>
<path d="M194.751 10.6924C201.129 10.6924 206.156 15.1169 206.156 21.2628V40.65C206.156 41.0413 205.839 41.3573 205.45 41.3573H200.488C200.097 41.3573 199.782 41.0396 199.782 40.65V21.2628C199.782 18.5596 197.267 16.2854 193.712 16.2854C190.157 16.2854 185.667 20.1571 185.619 21.9162V40.65C185.619 41.0413 185.302 41.3573 184.913 41.3573H180.011C179.62 41.3573 179.305 41.0396 179.305 40.65V19.8484L179.316 12.5089C179.241 12.0745 179.567 11.6742 180.007 11.6742H183.768C184.103 11.6742 184.472 11.9255 184.542 12.254C184.813 13.514 184.863 14.0705 184.97 15.5728C186.974 12.6022 189.851 10.6924 194.756 10.6924H194.751Z" fill="white"/>
<path d="M207.012 5.11927C207.012 2.39993 209.174 0.0952148 211.984 0.0952148C214.794 0.0952148 217.033 2.39993 217.033 5.11927C217.033 7.83862 214.796 10.102 211.984 10.102C209.172 10.102 207.012 7.90144 207.012 5.11927ZM216.057 5.09773C216.057 2.91687 214.278 1.02859 211.984 1.02859C209.69 1.02859 207.968 2.89713 207.968 5.09773C207.968 7.29834 209.727 9.12559 211.984 9.12559C214.24 9.12559 216.057 7.31988 216.057 5.09773ZM209.861 7.44373V2.46275H212.768C213.802 2.46275 214.566 3.12688 214.566 4.08179C214.566 4.66335 214.223 5.20363 213.572 5.47288L214.701 7.44552H213.323L212.367 5.68109H211.047V7.44552H209.861V7.44373ZM211.047 3.45715V4.64002H212.711C213.075 4.64002 213.361 4.32949 213.361 4.05846C213.361 3.74614 213.094 3.45536 212.731 3.45536H211.047V3.45715Z" fill="white"/>
<path d="M131.492 40.6483C131.492 41.0396 131.175 41.3555 130.787 41.3555H125.885C125.494 41.3555 125.179 41.0378 125.179 40.6483C125.179 40.6483 125.179 36.8932 125.19 36.3296C125.199 35.8881 125.44 35.4932 125.881 35.4932L129.63 35.5111C129.97 35.5111 130.203 35.7732 130.325 36.0909C130.577 36.7478 131.494 40.6483 131.494 40.6483H131.492Z" fill="white"/>
</svg>

<svg width="218" height="56" fill="none" xmlns="http://www.w3.org/2000/svg"><path d="M27.438.846H1.718C.768.846 0 1.616 0 2.566v25.776C0 43.53 12.284 55.841 27.438 55.841c15.154 0 27.439-12.312 27.439-27.499S42.591.844 27.438.844v.002Zm-7.404 39.271c-3.913-2.13-6.315-6.271-6.315-10.735V16.314c0-.95.769-1.721 1.718-1.721h13.037c4.452 0 8.586 2.407 10.711 6.329 7.066 13.03-6.15 26.274-19.15 19.193v.002Z" fill="#fff"/><path d="M27.438.846H1.718C.768.846 0 1.616 0 2.566v25.776C0 43.53 12.284 55.841 27.438 55.841c15.154 0 27.439-12.312 27.439-27.499S42.591.844 27.438.844v.002Zm-7.404 39.271c-3.913-2.13-6.315-6.271-6.315-10.735V16.314c0-.95.769-1.721 1.718-1.721h13.037c4.452 0 8.586 2.407 10.711 6.329 7.066 13.03-6.15 26.274-19.15 19.193v.002ZM70.148 40.648V1.937c0-.392.317-.708.706-.708h19.117c7.236 0 11.282 2.029 14.717 5.348 3.557 3.687 5.457 8.849 5.457 14.686s-2.084 11.491-5.887 15.178c-3.433 3.073-7.051 4.916-14.287 4.916H70.854a.707.707 0 0 1-.706-.707v-.002Zm19.517-5.437c5.088 0 6.806-1.166 9.197-3.134 2.575-2.58 4.108-6.513 4.108-10.814 0-4.3-1.348-7.927-3.863-10.508-2.269-2.089-4.415-3.38-9.442-3.38h-12.65v27.836h12.65ZM118.628 21.938v18.71a.707.707 0 0 1-.706.708h-4.902a.707.707 0 0 1-.706-.707V19.788s0-6.73.011-7.291c.009-.442.251-.837.691-.837l3.749.018c.34 0 .573.262.695.58.252.657.304 1.868.428 3.319 1.68-2.476 4.359-4.88 8.652-4.88 1.46 0 2.877.31 3.758.895.258.17.358.503.263.797l-1.504 4.667a.703.703 0 0 1-.921.443c-.969-.368-2.343-.598-3.066-.598-2.821 0-6.439 2.91-6.439 5.039l-.003-.002ZM154.407 0c12.632 0 22.686 9.463 22.686 21.2s-10.056 21.385-22.686 21.385c-12.631 0-22.504-9.463-22.504-21.385 0-11.922 9.872-21.2 22.504-21.2Zm0 36.441c8.645 0 15.451-6.882 15.451-15.24 0-8.356-6.806-15.055-15.451-15.055-8.646 0-15.269 6.76-15.269 15.056s6.683 15.239 15.269 15.239ZM194.751 10.692c6.378 0 11.405 4.425 11.405 10.57V40.65a.707.707 0 0 1-.706.707h-4.962a.707.707 0 0 1-.706-.707V21.263c0-2.703-2.515-4.978-6.07-4.978s-8.045 3.872-8.093 5.631V40.65a.707.707 0 0 1-.706.707h-4.902a.707.707 0 0 1-.706-.707V19.848l.011-7.34a.707.707 0 0 1 .691-.834h3.761c.335 0 .704.252.774.58.271 1.26.321 1.816.428 3.319 2.004-2.97 4.881-4.88 9.786-4.88h-.005ZM207.012 5.12c0-2.72 2.162-5.025 4.972-5.025 2.81 0 5.049 2.305 5.049 5.024 0 2.72-2.237 4.983-5.049 4.983-2.812 0-4.972-2.2-4.972-4.983Zm9.045-.022c0-2.181-1.779-4.07-4.073-4.07-2.294 0-4.016 1.87-4.016 4.07s1.759 4.028 4.016 4.028c2.256 0 4.073-1.806 4.073-4.028Zm-6.196 2.346V2.463h2.907c1.034 0 1.798.664 1.798 1.619 0 .581-.343 1.122-.994 1.39l1.129 1.974h-1.378l-.956-1.765h-1.32v1.765h-1.186v-.002Zm1.186-3.987V4.64h1.664c.364 0 .65-.31.65-.582a.62.62 0 0 0-.63-.603h-1.684v.002ZM131.492 40.648a.707.707 0 0 1-.705.707h-4.902a.707.707 0 0 1-.706-.707s0-3.755.011-4.318c.009-.442.25-.837.691-.837l3.749.018c.34 0 .573.262.695.58.252.657 1.169 4.557 1.169 4.557h-.002Z" fill="#fff"/></svg>
